img/icons/why_me/ic_balance.svg

<?xml version="1.0" encoding="UTF-8"?>
<svg width="47px" height="33px" viewBox="0 0 47 33" version="1.1" xmlns="http://www.w3.org/2000/svg" xmlns:xlink="http://www.w3.org/1999/xlink">
    <!-- Generator: Sketch 46.2 (44496) - http://www.bohemiancoding.com/sketch -->
    <title>ic_balance</title>
    <desc>Created with Sketch.</desc>
    <defs></defs>
    <g id="visual" stroke="none" stroke-width="1" fill="none" fill-rule="evenodd">
        <g id="Home" transform="translate(-937.000000, -3108.000000)">
            <g id="ic_balance" transform="translate(930.000000, 3093.000000)">
                <path d="M31.5364426,37.8437311 L37.2663593,44.7196312 L37.2663593,44.7196312 C37.9734875,45.568185 37.8588394,46.8293144 37.0102856,47.5364426 C36.6508556,47.8359676 36.1977898,48 35.7299168,48 L24.2700832,48 L24.2700832,48 C23.1655137,48 22.2700832,47.1045695 22.2700832,46 C22.2700832,45.532127 22.4341157,45.0790612 22.7336407,44.7196312 L28.4635574,37.8437311 L28.4635574,37.8437311 C29.1706856,36.9951773 30.431815,36.8805291 31.2803688,37.5876573 C31.3732949,37.6650958 31.4590041,37.7508049 31.5364426,37.8437311 Z" id="Triangle" fill="#F52B22" fill-rule="evenodd"></path>
                <path d="M8.12548828,36.0385742 L52.1337559,36.0385742" id="Path-24" stroke="#F52B22" stroke-width="2" fill="#FFFFFF" fill-rule="evenodd" stroke-linecap="round"></path>
                <rect id="Rectangle-Copy" stroke="#F52B22" stroke-width="2" fill="#FFFFFF" fill-rule="evenodd" x="12" y="18" width="8" height="4" rx="2"></rect>
                <rect id="Rectangle" stroke="#F52B22" stroke-width="2" fill="#FEE9E8" fill-rule="evenodd" x="8" y="21" width="16" height="11" rx="2"></rect>
                <path d="M8,25 L24.0156858,25" id="Path-25" stroke="#F52B22" stroke-width="2" fill="#FFFFFF" fill-rule="evenodd"></path>
                <path d="M38.9998363,18 L45.0001637,18 L45.0001637,18 C46.6569275,18 48,19.3430725 48,20.9998363 L48,20.9998363 L48,26 L48,26 C48,29.3137085 45.3137085,32 42,32 L42,32 L42,32 C38.6862915,32 36,29.3137085 36,26 L36,20.9998363 L36,20.9998363 L36,20.9998363 C36,19.3430725 37.3430725,18 38.9998363,18 Z" id="Rectangle-10" stroke="#F52B22" stroke-width="2" fill="#FEE9E8" fill-rule="evenodd"></path>
                <path d="M36,16 L50,16 L50,18 L50,18 C50,19.1045695 49.1045695,20 48,20 L38.9465791,20 L38.9465791,20 C38.4278824,20 37.9294736,20.2015165 37.5565364,20.5620218 L36.0689697,22 L36.0689697,22 C35.5842795,22.468533 34.8115393,22.4554349 34.3430063,21.9707446 C34.1229871,21.7431381 34,21.4389553 34,21.1223906 L34,18 L34,18 C34,16.8954305 34.8954305,16 36,16 Z" id="Path-30" stroke="#F52B22" stroke-width="2" fill="#FEE9E8" fill-rule="evenodd"></path>
                <path d="M40,27 C40.9001194,27.6666667 41.566786,28 42,28 C42.433214,28 43.0998806,27.6666667 44,27" id="Path-28" stroke="#F52B22" stroke-width="2" fill="#FFFFFF" fill-rule="evenodd"></path>
                <circle id="Oval-10" fill="#F52B22" fill-rule="evenodd" cx="40" cy="23" r="1"></circle>
                <circle id="Oval-10" fill="#F52B22" fill-rule="evenodd" cx="44" cy="23" r="1"></circle>
                <path d="" id="Path-29" stroke="#979797" stroke-width="1"></path>
            </g>
        </g>
    </g>
</svg>

<svg width="47" height="33" viewBox="0 0 47 33" xmlns="http://www.w3.org/2000/svg"><title>ic_balance</title><g transform="translate(-7 -15)" fill="none" fill-rule="evenodd"><path d="M31.536 37.844l5.73 6.876A2 2 0 0 1 35.73 48H24.27a2 2 0 0 1-1.536-3.28l5.73-6.876a2 2 0 0 1 3.072 0z" fill="#F52B22"/><path d="M8.125 36.039h44.009" stroke="#F52B22" stroke-width="2" fill="#FFF" stroke-linecap="round"/><rect stroke="#F52B22" stroke-width="2" fill="#FFF" x="12" y="18" width="8" height="4" rx="2"/><rect stroke="#F52B22" stroke-width="2" fill="#FEE9E8" x="8" y="21" width="16" height="11" rx="2"/><path d="M8 25h16.016" stroke="#F52B22" stroke-width="2" fill="#FFF"/><path d="M39 18h6a3 3 0 0 1 3 3v5a6 6 0 1 1-12 0v-5a3 3 0 0 1 3-3z" stroke="#F52B22" stroke-width="2" fill="#FEE9E8"/><path d="M36 16h14v2a2 2 0 0 1-2 2h-9.053a2 2 0 0 0-1.39.562L36.069 22A1.22 1.22 0 0 1 34 21.122V18a2 2 0 0 1 2-2z" stroke="#F52B22" stroke-width="2" fill="#FEE9E8"/><path d="M40 27c.9.667 1.567 1 2 1 .433 0 1.1-.333 2-1" stroke="#F52B22" stroke-width="2" fill="#FFF"/><circle fill="#F52B22" cx="40" cy="23" r="1"/><circle fill="#F52B22" cx="44" cy="23" r="1"/></g></svg>
